X:5137
T:Pishla B Na Muzyky
O:england
S:A. Humenyuk
Q:120
M:2/4
L:1/8
K:F
A2G2| A F B B | A c (B/2A/2) G | A F B2 | \
c B A G | A F B B | c B A G | A F B2 | \
c2 G2 | A F B B |
A2 (c>B) | (A/2G/2) F B B | \
A A (c>B) | A F B2 | A (A/2c/2) G2 | F F F2 |: \
f3-c | f3-B | A (A/2c/2) G2 | F F F2 :|
